X:1
T:The Well-Tempered Clavier Book II - XIV
T:BWV 883    (A = 415 Hz)
T:J. S. Bach
%%score { ( 1 2 4 ) | ( 3 5 ) }
L:1/8
Q:1/4=96
M:3/4
K:A
V:1 treble 
V:2 treble 
V:4 treble 
V:3 bass 
V:5 bass 
V:1
"^Andante""^Praeludium" f c2 A/B/ (3c/B/A/(3B/A/G/ | A/B/A/G/ A/c/f/g/ (3a/g/f/(3g/f/^e/ | %2
 f/c^e/ f/ce/ f/c/f/g/ | a/=f/^f/a/ B/a/g/a/ (3b/a/g/(3a/g/f/ | ^e/^Bc/ f/Bc/ (3g/=B/c/(3d/c/B/ | %5
 A2- (3A/G/F/(3^E/F/G/ (3F/E/F/(3:2:2^dF/ | F3/2^E/4^D/4 (3E/C/D/(3E/F/G/ (3F/E/F/(3G/A/B/ | %7
 A/4G/4FA/4c/4 (3f/c/^d/(3^e/f/g/ (3a/g/f/(3g/f/=e/ | e/4^d/4e/f- f/e/d/a/ (3g/f/e/(3f/e/d/ | %9
 e/^d/c- c/d/c/=c/ ^c/e/A/G/ | A/^B/F/E/ F/B/c/^d/ (3e/d/c/(3d/c/B/ | c G2 E/F/ (3G/F/E/(3F/E/^D/ | %12
 E/F/E/^D/ E/G/c/^d/ (3e/=g/f/(3e/=d/c/ | (3B/^A/c/E- E/4F/4E/4^D/4E/E/- E/A/B/c/ | %14
 D/E/D/C/ D/F/B/c/ (3d/f/e/(3d/c/B/ | (3A/G/B/D- D/4E/4D/4C/4D/D/- D/G/A/B/ | %16
 C/D/C/B,/ C/E/A/B/ c2- | c/=G/F/E/ F/A/d/e/ f2- | f/A/G/F/ G/B/e/g/ b/d/c/B/ | %19
 c/f/e/^d/ e/c/B/A/ cB | C/E/A- A/E/A/B/ c/A/F/^d/ | e/B^d/ e/Bd/ e/B/^A/e/ | %22
 e/4d/4c/B- B/F/B/c/ d/B/G/^e/ | f/c^e/ f/ce/ f/c/^B/f/ | f/4e/4^d/c- c/G/c/d/ e/c/^A/=g/ | %25
 f/d/B/^A/ B/F/B/d/ f/d/^B/a/ | g/e/c/^B/ c/G/c/e/ g/^e/d/b/ | a/f^e/ f/dc/ c/^Bf/ | %28
[Q:1/4=72]"^Adagio" f!fermata!^e[Q:1/4=96]"^Andante" z4 | f c2 A/B/ (3c/B/A/(3B/A/G/ | %30
 A/B/A/G/ A/c/f/g/ (3a/g/f/(3g/f/^e/ | f/c^e/ f/ce/ f/d/c/^a/ | b/f^a/ b/fa/ (3b/=a/g/(3a/g/f/ | %33
 =g/df/ g/df/ ga | (3^e/f/g/(3f/e/^d/ (3c/B/c/(3=d/c/B/ (3A/B/c/(3B/A/G/ | F/^ef/ G/f=f/ _B/=e^d/ | %36
 (3^d/e/f/(3e/d/c/ (3^B/c/d/(3c/B/^A/ (3G/F/G/(3=A/G/F/ | (3^E/F/G/(3F/E/^D/{D} C2- C/E/4G/4B/d/ | %38
 (3c/^d/^e/(3f/=e/=d/ (3c/B/A/(3d/c/B/ (3A/G/F/(3G/F/^E/ | F4- F/^EF/ | %40
 d/^Bc/ ^E/=BA/ (3G/B/A/(3G/F/E/ | (3F/G/A/(3B/c/d/ CF- F/F^E/ | !fermata!F6 |[M:4/4]"^Fuga" z8 | %44
 z8 | z8 | z2 z F EC A2- | AG/F/ G2- Gc F2- | %48
 FE/^D/ EC E/4D/4E/4D/4E/4D/4E/4D/4 E/4D/4E/4D/4E/4D/4E/4D/4 | Cc F2- FB E2- | E A2 G2 F2 ^E | %51
 F2 z B GE z A | F^D z G ^EC F2- | F2 ^E2 FABd | z GAc z F/G/ A/4G/4A/4G/4A/4G/4F/4G/4 | %55
 A2 z ^d ^BG z c | f2 ^d2 gefa | z deg z cBA | G2 z c AF d2- | dc/B/ c2- cf B2- | BA/G/ AF G4 | %61
 F3 B EGAc | F2 G2 A2 z2 | z4 z d d/4c/4d/4c/4d/4c/4B/ | ^AF B4 A=A- | AB B/4A/4B/4A/4B/4A/4G/ F4 | %66
 E3 A B3 G | c3 A d4- | dd d/4c/4d/4c/4d/4c/4B/ A2 f2- | fe e/4d/4e/4d/4e/4d/4c/ dB e2- | %70
 efdB c2 z ^A | Bd d/4c/4d/4c/4d/4c/4B/ A3 d | =G3 c F2 z2 | z ^EFA ^DF B2- | BA/G/ Ac FA d2- | %75
 dd d/4c/4d/4c/4d/4c/4B/ A4- | AG/F/ G^D Ee e/4^d/4e/4d/4e/4d/4c/ | ^Bfe^d e3 d/c/ | g^B c4 B2 | %79
 c2 z c B/c/B/A/ B/A/G/B/ | A/B/A/G/ A/G/F/A/ GcF^A | BF B4 A2- | A2 G4 F2 | G^Bce z e^df- | %84
 f^B c2- c^^F G2- | G^A^D^^F G2 z/ =A/B/G/ | A/B/A/G/ A/G/F/A/ G/A/B/G/ c2- | %87
 cc B2- B/B/A/G/ A/B/c/A/ | d/e/d/c/ d/c/B/d/ c/d/c/B/ c/B/A/c/ | B4- B/G/^A/B/ A/B/c/A/ | %90
 B/^A/B/c/ B/c/d/B/ c/B/c/d/ c/d/e/c/ | d/e/d/c/ d/c/B/d/ =G4- | G/=G/F/E/ F/E/D/F/ B,2 C2 | %93
 DF B2- B^A/G/ A2 | B2 z e A3 d | =G3 =c ^AF- F/B/^c/d/ | ^Ec F2- FE/F/ G/A/B/G/ | %97
 B/A/G/F/ d2- dc/B/ c2- | cf B2- BA/G/ AF | G4 Fcfa | g4- gagf | e4- ee^df | ^B3 ^d G2 z c | %103
 B/c/B/A/ B/A/G/B/ A/B/A/G/ A/G/F/A/ | G/A/G/F/ G/F/E/G/ F/G/F/E/ F/E/^D/F/ | E2 z2 z =GFE | %106
 D2 z2 z FED | C3 C F2- F^E/F/ | GF/G/ A z z2 z c | AF d2- dc/B/ c2- | cf B2- BA/G/ AF | %111
 G4- G/F^E/- E/FG/ | C F2 ^E !fermata!F4 |] %113
V:2
 z[I:staff +1] A,C F2 ^E | F C2 A,/B,/ (3C/B,/A,/(3B,/A,/G,/ | A,B, CG F^E | FC F,^E, F,B, | %4
[I:staff -1] z[I:staff +1] G, A,F, ^E,2- | (3E,/^E,/F,/(3G,/F,/E,/ (3F,/G,/A,/(3B,/A,/G,/ A,2- | %6
 A,/G,/4F,/4G,- G,2[I:staff -1] z2 | z2 z2 z[I:staff +1] B, | A,>A, G,F, E,^D, | C,4- C,C, | %10
 F,[I:staff -1] z z2 z[I:staff +1] F,- | F,E,G, C2 ^B, | %12
 CG,- G,/F,/E,[I:staff -1] z[I:staff +1] E,- | E,C, F,4- | F,F, B,/F,F,/- F,<D,- | D,B,, E,4- | %16
 E,E, A,G, A,2- | A,A, DA,- A,/A,^D,/ | G,B, EB, G,2 | A,G, G,/A,B,/- B,/A,G,/ | %20
 A,2[I:staff -1] z2 z[I:staff +1] =C | B,A, =G,B, C2 | B,2[I:staff -1] z2 z[I:staff +1] D | %23
 CB, A,C ^D2 | C2[I:staff -1] z2[I:staff +1] C2- | CF, D,/B,,/D,/F,/ B,F, | CG, E,/C,/E,/G,/ CG, | %27
 F,G, A,G, F,G, | A,!fermata!G,[I:staff -1] z4 | z[I:staff +1] A, C F2 ^E | %30
 F C2 A,/B,/ (3C/B,/A,/(3B,/A,/G,/ | A,B, CB, A,=G, | F,E, F,C F,2 | B,D DD DD | %34
 C2[I:staff -1] z[I:staff +1] G, C2- | CC B,2[I:staff -1] z[I:staff +1] ^A, | ^B,C ^DG, ^A,B, | %37
 B,A, G,A, B,^E, | F,C, F,3 ^E, | %39
[I:staff -1] (3z/ E/D/(3C/D/E/ (3D/C/B,/(3^A,/B,/C/ B,[I:staff +1]=A, | G,A, B, F,2 E, | %41
[I:staff -1] z2 z G, A,B, | !fermata!^A,6 |[M:4/4] z2 z[I:staff +1] C A,F, D2- | %44
 DC/B,/ C2- CF B,2- | %45
 B,A,/G,/ A,F, A,/4G,/4A,/4G,/4A,/4G,/4A,/4G,/4 A,/4G,/4A,/4G,/4A,/4G,/4A,/4G,/4 | %46
 F,G,A,B, C2[I:staff -1] z[I:staff +1] ^D | %47
 E2[I:staff -1] z[I:staff +1] E ^A,2[I:staff -1] z[I:staff +1] ^B, | %48
 C2[I:staff -1] z[I:staff +1] C- C^B,/^A,/ B,G, | E3 A, D3 G, | C2 B,2 A,2 G,2 | %51
 F,2[I:staff -1] z2 z2[I:staff +1] E,2 | A,2[I:staff -1] =DB, G,2 z A, | %53
 B,D z G, A,C z[I:staff +1] F, | G,B,[I:staff -1] z[I:staff +1] A,[I:staff -1] D2 B,2 | %55
 EC^DF z[I:staff +1] ^B,CE | %56
[I:staff -1] z ^A,/^B,/ C/4B,/4C/4B,/4C/4B,/4A,/4B,/4 C2 z[I:staff +1] F | %57
 DB,[I:staff -1] z[I:staff +1] E CA,[I:staff -1] z[I:staff +1] C | %58
 B,A, A,/4G,/4A,/4G,/4A,/4G,/4A,/4G,/4 F,2[I:staff -1] z B | E3 E A2- AG/F/ | G^E F2- F=E/^D/ E2- | %61
 ED/C/ D4 C2- | CDCE C2 z2 | z C C/4B,/4C/4B,/4C/4B,/4[I:staff +1]A,/ G,3 C | %64
 F,[I:staff -1]F F/4E/4F/4E/4F/4E/4D/ C=G G/4F/4G/4F/4G/4F/4E/ | ^DB, E4 D=D- | DC/B,/ CF DB, E2- | %67
 ED F2- FA A/4G/4A/4G/4A/4G/4F/ | EBAG F[I:staff +1]EDC | B,2 F2- FD D/4C/4D/4C/4D/4C/4B,/ | %70
 ^A,F, B,4 A,[I:staff -1]F | D[I:staff +1]B,[I:staff -1] =G2- GF/E/ F2- | FB E2- ED/C/ DB, | %73
 C4 B,3 G | E4 D3 B | G^E z G- GF/E/ F^D | ^B,4 C z z2 | z ^d d/4c/4d/4c/4d/4c/4^B/ c=BAF | %78
[I:staff +1] ^B,^DG,[I:staff -1]G F/G/F/E/ F/E/^D/E/ | E/F/E/^D/[I:staff +1] E/D/C/E/ DGC^E | %80
 F/D/C/B,/ C/A,/D- DG,^A,C | F,[I:staff -1] z z F E/F/E/^D/ E/D/C/E/ | %82
 ^D/E/D/C/ D/C/^B,/D/ C/D/C/B,/ C/E/D/C/ | ^B,^DEG z GFA- | AG/F/ G^A ^D/E/D/C/ D/C/B,/D/ | %85
 C/^D/C/B,/ C/B,/^A,/C/ B,/C/D/B,/ E2- | E2 ^D2 E2 z/ B/A/G/ | F3 F E2 z2 | %88
 z[I:staff +1] A G2 GC F2- | F/[I:staff -1]A/G/F/ G/F/^E/G/ F[I:staff +1]C D2- | %90
 D^D E2- E[I:staff -1]^E F2- | F4- F/F/E/D/ E/D/C/E/ | A,4- A,/A,/=G,/F,/ G,/F,/E,/G,/ | %93
 F, z z B, E2 z F | DB, =G2- GF/E/ F2- | FB E2- ED/C/ D[I:staff +1]B, |[I:staff -1] C4 B,2 z2 | %97
 z2 z/ c/B/A/ G2- G/B/A/G/ | FA A/4G/4A/4G/4A/4G/4F/ ^EC F2- | F2 ^E2 F2 z2 | z Gce ^d4- | %101
 dGcB A4- | A^DGF- F/F/E/D/ C/D/E/C/ | ^D2 z[I:staff +1] E C>E E/4D/4E/4D/4E/4D/4C/ | %104
 ^B,G, C4 B,2 |[I:staff -1] CG,CE ^A,2 B,C- | CF,B,D G,2 A,B,- | B,A,/G,/ A,2- A,B,/C/ D2- | %108
 D/C/^D/^E/ F/G/A/F/ B/c/d/B/ B/A/G/A/ | F z z F E/F/[I:staff +1]E/D/ E/D/C/E/ | %110
 D/E/D/C/ D/C/B,/[I:staff -1]D/ C/D/C/B,/ C/[I:staff +1]B,/A,/C/ | %111
 B,/C/B,/A,/ B,/A,/G,/B,/ A,[I:staff -1]B,CD | A,2 G,2 F,4 |] %113
V:3
 F,2- F,>G, A,C | F,6- | F,G, A,B, A,G, | F,E, _D,4 | C,6- | C,2 z2 z ^B,, | C,3 C, ^D,^E, | %7
 F,F,, A,,C, F,2- | F,^D, ^B,,2 z G,, | C,>B,, A,,G,, F,,2- | F,,G,, A,,F,, G,,2 | %11
 C,2- C,>^D, E,G, | C,2- C,>B,, ^A,,C, | F,,2 z C, ^A,,F,, | B,,3 D, B,,/D,/G,,/B,,/ | %15
 E,,2 z B,, G,,E,, | A,,2 z2 z/ E,/C,/A,,/ | D,3 F, ^D,B,, | E,4- E,E, | A,,B,, C,D, E,E, | %20
 A,>E, C,/A,,/C,/E,/ A,2 | =G,F, E,G, C,F, | B,>F, D,/B,,/D,/F,/ B,2 | A,G, F,A, ^D,G, | %24
 C>G, E,/C,/E,/G,/ z E, | D,2 z2 z ^D, | E,2 z2 z ^E, | F,2- F,E, ^D,=D, | %28
 !fermata!C,2 z (3B,,/C,/D,/ (3C,/B,,/A,,/(3B,,/A,,/G,,/ | F,, F,2- F,/G,/ A,C | F,6- | %31
 F,G, A,G, F,E, | D,C, D,E, D,C, | B,,B, B,B, B,B, | B,2 z ^E, F,C, | D,2- D,D, C,=G, | %36
 F,3 E,2 ^D, | C,^D, ^E,F, G,G,, | A,,3 B,, C,B,, | ^A,,F, B,,C, D,B,, | C,3 D, B,,C, | %41
 A,,G,, A,, z2 C,, | !fermata!F,,6 |[M:4/4] z8 | z8 | z8 | z8 | z8 | z8 | z8 | z4 z2 z C, | %51
 A,,F,, D,2- D,C,/B,,/ C,2- | C,F, B,,2- B,,A,,/G,,/ A,,F,, | %53
 A,,/4G,,/4A,,/4G,,/4A,,/4G,,/4A,,/4G,,/4 A,,/4G,,/4A,,/4G,,/4A,,/4G,,/4A,,/4G,,/4 F,,2 D,2- | %54
 D,2 C,2 B,,2 z E, | C,A,, F,4 E,2 | ^D,2 z G, E,C, A,2- | A,2 G,2- G,C, F,2- | F,2 ^E,2 F,A,B,D | %59
 G,E,A,C F,^D,G,B, | ^E,C,F,A, B,G,CB, | ^A,F,B,=A, G,E,F,A, | %62
 D,B,,E,E,, A,,A, A,/4G,/4A,/4G,/4A,/4G,/4F,/ | ^E,C, F,4 E,=E,- | E,D,C,B,, E,C,F,F,, | %65
 B,,2 z C, A,,C C/4B,/4C/4C/4B,/4C/4A,/ | G,E, A,4 G,E, | A,3 F, B,3 G, | C4- CC B,>A, | %69
 G,2 ^A,2 B,2 =G,2 | F,2 z =G, E,C, F,2- | F,2 E,D, C,A,,D,C, | %72
 B,,D, D,/4C,/4D,/4C,/4D,/4C,/4B,,/ ^A,,F,, B,,2- | B,,A,,/G,,/ A,,2- A,,G,,/F,,/ G,,E,, | %74
 C,C,, C,2- C,B,,/A,,/ B,,G,, | ^E,,G,^E,C, F,G,A,F, | G,G,, z G, E,C, A,2- | %77
 A,G,/F,/ G,2- G,C F,2- | F,E,/^D,/ E,C, D,2 G,2 | C,2 z2 z4 | z2 z F, E,/F,/E,/D,/ E,/D,/C,/E,/ | %81
 D,/E,/D,/C,/ D,/C,/B,,/D,/ C,F,,F,A, | B,,B,E,G, A,,G,,A,,A, | %83
 G,/A,/G,/F,/ G,/F,/E,/G,/ F,/G,/F,/E,/ F,/E,/^D,/F,/ | E,/F,/E,/^D,/ E,/D,/C,/E,/ ^^F,,^A,,B,,E, | %85
 ^A,,C,^D,^D,, G,,G,/F,/ G,C, | F,,F,/E,/ F,B,, E,/F,/G,/E,/ A,/B,/C/A,/ | %87
 D/E/D/C/ D/C/B,/D/ C/D/C/B,/ C/B,/A,/C/ | B,3 E A,3 D | G,B,^E,C, F,3 F, | =G,3 ^G, A,3 ^A, | %91
 B,F,B,,D, E,F,=G,E, | C,A,,D,F,, =G,,B,,E,,A,, | %93
 D,/C,/D,/E,/ D,/=G,/F,/G,/ C,/B,,/C,/D,/ C,/F,/E,/F,/ | %94
 B,,/C,/D,/B,,/ E,/D,/C,/B,,/ C,/E,/D,/C,/ D,/E,/F,/D,/ | %95
 E,/D,/E,/F,/ =G,/F,/E,/G,/ F,/^G,/^A,/F,/ B,/B,,/B,- | %96
 B,/A,/G,/B,/ A,/G,/F,/A,/ G,/A,/G,/F,/ ^E,/F,/G,/E,/ | %97
 F,G,/A,/ B,/A,/G,/F,/ E,/F,/E,/D,/ E,/D,/C,/E,/ | %98
 D,/E,/D,/C,/ D,/C,/B,,/D,/ C,/D,/C,/B,,/ C,/B,,/A,,/C,/ | %99
 B,,/C,/B,,/A,,/ B,,/A,,/G,,/B,,/ A,,/G,,/F,,/G,,/ A,,/B,,/C,/^D,/ | %100
 E,/^D,/C,/D,/ E,/F,/G,/^A,/ ^B,/A,/B,/C/ B,/C/^D/B,/ | %101
 C/^D/E/D/ C/B,/A,/G,/ F,/E,/F,/G,/ F,/G,/A,/F,/ | G,/F,/G,/A,/ G,/F,/E,/^D,/ E,C, A,2- | %103
 A,G,/F,/ G,2- G,C F,2- | F,E,/^D,/ E,C, D,4 | %105
 C,/^B,,/C,/^D,/ E,/F,/=G,/E,/ F,/G,/F,/E,/ =D,/C,/=B,,/^A,,/ | %106
 B,,/F,,/B,,/C,/ D,/E,/F,/D,/ E,/F,/E,/E,/ C,/B,,/A,,/G,,/ | %107
 A,,/E,,/A,,/B,,/ C,/D,/E,/C,/ D,/E,/D,/C,/ B,,/A,,/G,,/F,,/ | ^E,,C,, F,,4 E,,2 | %109
 F,,/F,/G,/A,/ B,/C/B,/A,/ G,2 z ^A, | B,>A, G,>F, ^E,C, F,2- | F,2 ^E,2 F,D,A,,B,, | %112
 C,2 C,,2 !fermata!F,,4 |] %113
V:4
 x6 | x6 | x6 | x6 | x6 | x6 | x6 | x6 | x6 | x6 | x6 | x6 | x6 | x6 | x6 | x6 | x6 | x6 | x6 | %19
 z4 c/E/B/D/ | x6 | x6 | x6 | x6 | x6 | x6 | x6 | z4 z/ =B3/2 | !fermata!c2 z4 | x6 | x6 | x6 | %32
 x6 | x6 | x6 | x6 | x6 | x6 | x6 | x6 | x6 | x6 | x6 |[M:4/4] x8 | x8 | x8 | x8 | x8 | x8 | x8 | %50
 x8 | x8 | x8 | x8 | x8 | x8 | x8 | x8 | x8 | x8 | x8 | x8 | x8 | x8 | x8 | x8 | x8 | x8 | x8 | %69
 x8 | x8 | x8 | x8 | x8 | x8 | x8 | x8 | x8 | x8 | x8 | x8 | x8 | x8 | x8 | x8 | x8 | x8 | x8 | %88
 x8 | x8 | x8 | x8 | x8 | x8 | x8 | x8 | x8 | x8 | x8 | x8 | x8 | x8 | x8 | x8 | x8 | x8 | x8 | %107
 x8 | x8 | x8 | x8 | x8 | x8 |] %113
V:5
 x6 | x6 | x6 | x6 | x6 | x6 | x6 | x6 | x6 | x6 | x6 | x6 | x6 | x6 | x6 | x6 | x6 | x6 | x6 | %19
 x6 | x6 | x6 | x6 | x6 | x6 | x6 | x6 | x6 | x6 | x6 | x6 | x6 | x6 | x6 | x6 | x6 | x6 | x6 | %38
 x6 | x6 | ^E,F, G, z z2 | C,^E, (3E,/F,/=E,/(3D,/C,/B,,/ C,2- | !fermata!C,6 |[M:4/4] x8 | x8 | %45
 x8 | x8 | x8 | x8 | x8 | x8 | x8 | x8 | x8 | x8 | x8 | x8 | x8 | x8 | x8 | x8 | x8 | x8 | x8 | %64
 x8 | x8 | x8 | x8 | x8 | x8 | x8 | x8 | x8 | x8 | x8 | x8 | x8 | x8 | x8 | x8 | x8 | x8 | x8 | %83
 x8 | x8 | x8 | x8 | x8 | x8 | x8 | x8 | x8 | x8 | x8 | x8 | x8 | x8 | x8 | x8 | x8 | x8 | x8 | %102
 x8 | x8 | x8 | x8 | x8 | x8 | x8 | x8 | x8 | x8 | x8 |] %113

